X: 143
T: Waxies Dargle
M:4/4
R:reel
L:1/8
Z:added by Alf warnock alf0@rogers.com - www.alfwarnock.info/alfs
K:A
ag|"A"fecA "D"BAFE/2E/2|"A"AA/2A/2Ac e2ca/2g/2|fecA "D"BAFA/2A/2|"E7"GBEG "A"A2AA|
"A"cefg aecA|cefg "D"a2"E7"ga/2g/2|"A"fecA "D"BAFA|"E7"GB/2B/2EG "A"A2A2||
P:Chorus
"A"ce/2e/2fg/2g/2 aecA|ce/2e/2fg "D"a2"E7"ga/2g/2|"A"fecA "D"BAFA|"E7"GB/2B/2EG "A"A2A2|]
%%text Repeat last bar at the end of the chorus

